images/development-services/magenta-logo.svg

<svg width="182" height="52" viewBox="0 0 182 52" fill="none" xmlns="http://www.w3.org/2000/svg">
<g clip-path="url(#clip0_11546_146437)">
<path d="M10.8567 33.9902H0.565186V23.699H10.8567V33.9902ZM0.565186 0V17.5024H3.65806V16.9951C3.65806 8.75122 8.28831 3.60557 17.0424 3.60557H17.5488V40.676C17.5488 45.8216 15.4869 47.8871 10.3502 47.8871H8.79475V51.4927H35.5454V47.8871H34.008C28.8713 47.8871 26.8094 45.8216 26.8094 40.676V3.60557H27.3158C36.0699 3.60557 40.7001 8.75122 40.7001 16.9951V17.5024H43.793V0H0.565186ZM33.4834 33.9902H43.7749V23.699H33.4834V33.9902ZM164.361 52C167.906 52 170.13 50.0251 170.13 46.9631C170.13 44.5714 168.756 43.0132 166.151 42.3429L164.071 41.7993C163.185 41.6 162.697 41.1652 162.697 40.3679C162.697 39.5707 163.33 38.9366 164.361 38.9366C165.374 38.9366 165.988 39.4801 166.151 40.6035H170.112C169.787 37.5415 167.634 35.6571 164.379 35.6571C160.87 35.6571 158.699 37.7951 158.699 40.4404C158.699 43.1219 160.11 44.5171 162.335 45.1331L164.433 45.6767C165.446 45.9665 166.151 46.3833 166.151 47.3073C166.151 48.1951 165.446 48.7387 164.361 48.7387C163.275 48.7387 162.552 48.2857 162.317 47.1442H158.482C158.736 50.2063 160.906 52 164.361 52ZM151.284 52C154.829 52 157.054 50.0251 157.054 46.9631C157.054 44.5714 155.679 43.0132 153.074 42.3429L150.994 41.7993C150.108 41.6 149.62 41.1652 149.62 40.3679C149.62 39.5707 150.253 38.9366 151.284 38.9366C152.297 38.9366 152.912 39.4801 153.074 40.6035H157.035C156.71 37.5415 154.558 35.6571 151.302 35.6571C147.793 35.6571 145.623 37.7951 145.623 40.4404C145.623 43.1219 147.033 44.5171 149.258 45.1331L151.356 45.6767C152.369 45.9665 153.074 46.3833 153.074 47.3073C153.074 48.1951 152.369 48.7387 151.284 48.7387C150.199 48.7387 149.475 48.2857 149.24 47.1442H145.406C145.677 50.2063 147.847 52 151.284 52ZM143.977 43.3575C143.977 38.6648 141.354 35.6028 137.339 35.6028C133.034 35.6028 130.357 38.6286 130.357 43.8105C130.357 49.0467 133.124 52.0181 137.248 52.0181C140.631 52.0181 143.217 50.17 143.814 47.1442H139.672C139.292 48.0683 138.46 48.5394 137.248 48.5394C135.693 48.5394 134.499 47.7059 134.282 44.807H143.904C143.977 44.4446 143.977 43.901 143.977 43.3575ZM137.339 39.0815C138.713 39.0815 139.799 39.7519 140.088 41.8174H134.409C134.788 39.7519 135.856 39.0815 137.339 39.0815ZM123.9 35.6028C122.055 35.6028 120.59 36.4906 119.794 37.9944H119.595V36.1101H115.743V51.4927H119.849V42.4697C119.849 40.5854 120.898 39.3714 122.471 39.3714C123.936 39.3714 124.479 40.3317 124.479 41.8355V51.5108H128.585V41.3101C128.585 37.5415 127.029 35.6028 123.9 35.6028ZM113.138 33.8453V30.1672H109.033V33.8453H113.138ZM113.138 51.4927V36.1101H109.033V51.4927H113.138ZM101.255 52C104.8 52 107.025 50.0251 107.025 46.9631C107.025 44.5714 105.65 43.0132 103.046 42.3429L100.966 41.7993C100.08 41.6 99.5913 41.1652 99.5913 40.3679C99.5913 39.5707 100.224 38.9366 101.255 38.9366C102.268 38.9366 102.883 39.4801 103.046 40.6035H107.007C106.681 37.5415 104.529 35.6571 101.273 35.6571C97.7645 35.6571 95.5941 37.7951 95.5941 40.4404C95.5941 43.1219 97.0048 44.5171 99.2295 45.1331L101.328 45.6767C102.34 45.9665 103.046 46.3833 103.046 47.3073C103.046 48.1951 102.34 48.7387 101.255 48.7387C100.17 48.7387 99.4466 48.2857 99.2114 47.1442H95.377C95.6483 50.2063 97.8187 52 101.255 52ZM85.3749 52C87.2198 52 88.6848 51.1122 89.4807 49.6084H89.6796V51.4927H93.5321V36.1101H89.4264V45.115C89.4264 46.9993 88.3774 48.2495 86.8038 48.2495C85.3387 48.2495 84.7961 47.2892 84.7961 45.7854V36.1101H80.6904V46.2927C80.6723 50.0613 82.2459 52 85.3749 52ZM76.0601 40.7122C77.688 39.7519 78.6827 38.0307 78.6827 35.8383C78.6827 32.7763 76.8379 30.1854 72.4608 30.1854H64.3579V51.5108H72.298C76.9283 51.5108 78.8636 48.8655 78.8636 45.6042C78.8636 43.3756 77.8507 41.6725 76.0601 40.8571V40.7122ZM71.882 33.9721C73.2928 33.9721 74.2153 34.9324 74.2153 36.4362C74.2153 37.9038 73.329 38.9185 71.882 38.9185H68.6626V33.9721H71.882ZM68.6626 47.6878V42.5784H71.7916C73.4737 42.5784 74.4142 43.5387 74.4142 45.0969C74.4142 46.7275 73.4918 47.6878 71.7916 47.6878H68.6626ZM164.126 18.5714C165.934 18.5714 166.965 17.0676 166.965 15.2557V14.5129H166.133C163.619 14.5129 162.299 15.2557 162.299 16.7777C162.317 17.901 163.149 18.5714 164.126 18.5714ZM172.391 18.1909V21.0899C171.921 21.3436 171.053 21.5066 170.438 21.5066C169.226 21.5066 167.797 21.0355 167.381 19.5679H167.218C166.296 20.9993 164.759 21.6334 163.04 21.6334C160.11 21.6334 158.392 19.9122 158.392 17.1038C158.392 13.462 161.684 11.7408 166.133 11.7408H166.965V11.1429C166.965 9.63902 166.296 8.75122 164.759 8.75122C163.583 8.75122 162.95 9.45784 162.751 10.4181H158.826C159.152 7.28362 161.503 5.43554 164.759 5.43554C168.846 5.43554 170.98 7.82718 170.98 11.4328V17.3756C170.98 18.0098 171.306 18.2997 171.74 18.2997C172.048 18.2815 172.228 18.2453 172.391 18.1909ZM154.033 21.5791C155.172 21.5791 156.113 21.416 156.963 21.0355V17.8105C156.42 17.9373 155.824 18.0279 155.209 18.0279C154.033 18.0279 153.364 17.43 153.364 16.2704V9.43972H157.289V5.94286H153.364V0.344251H152.604L149.258 3.44251V5.92474H146.635V9.43972H149.258V16.7777C149.258 19.9122 151.193 21.5791 154.033 21.5791ZM140.703 5.41742C138.858 5.41742 137.393 6.30523 136.597 7.80906H136.398V5.94286H132.546V21.3254H136.651V12.2843C136.651 10.4 137.7 9.18606 139.274 9.18606C140.739 9.18606 141.282 10.1463 141.282 11.6502V21.3254H145.387V11.1429C145.387 7.37422 143.832 5.41742 140.703 5.41742ZM121.205 11.6502H126.884C126.595 9.56655 125.51 8.91429 124.135 8.91429C122.634 8.89617 121.585 9.56655 121.205 11.6502ZM130.701 14.6216H121.079C121.296 17.5206 122.489 18.354 124.045 18.354C125.257 18.354 126.089 17.8829 126.468 16.9408H130.61C130.014 19.9666 127.427 21.8146 124.045 21.8146C119.939 21.8146 117.154 18.8432 117.154 13.607C117.154 8.44321 119.831 5.3993 124.135 5.3993C128.151 5.3993 130.773 8.46132 130.773 13.154C130.773 13.7157 130.773 14.2592 130.701 14.6216ZM111.366 13.0815C111.366 10.6899 110.371 9.27665 108.4 9.27665C106.428 9.27665 105.433 10.6899 105.433 13.0815C105.433 15.4369 106.428 16.8864 108.4 16.8864C110.371 16.8864 111.366 15.4369 111.366 13.0815ZM115.417 5.94286V20.8544C115.417 24.4599 112.958 26.9784 108.472 26.9784C104.547 26.9784 102.16 24.8042 101.816 22.3763H105.922C106.211 23.1735 107.061 23.6265 108.472 23.6265C110.389 23.6265 111.312 22.5756 111.312 20.9087V18.97H111.113C110.371 20.0209 109.105 20.7275 107.314 20.7275C103.48 20.7275 101.255 17.7561 101.255 13.0997C101.255 8.44321 103.48 5.43554 107.314 5.43554C109.358 5.43554 110.66 6.35958 111.366 7.66411H111.565V5.94286H115.417ZM92.5012 18.5714C94.3099 18.5714 95.3408 17.0676 95.3408 15.2557V14.5129H94.5088C91.9947 14.5129 90.6744 15.2557 90.6744 16.7777C90.6925 17.901 91.5245 18.5714 92.5012 18.5714ZM100.767 18.1909V21.0899C100.297 21.3436 99.4285 21.5066 98.8135 21.5066C97.6017 21.5066 96.1728 21.0355 95.7568 19.5679H95.5941C94.6716 20.9993 93.1342 21.6334 91.416 21.6334C88.4859 21.6334 86.7676 19.9122 86.7676 17.1038C86.7676 13.462 90.0594 11.7408 94.5088 11.7408H95.3408V11.1429C95.3408 9.63902 94.6716 8.75122 93.1342 8.75122C91.9586 8.75122 91.3255 9.45784 91.1266 10.4181H87.2017C87.5273 7.28362 89.8786 5.43554 93.1342 5.43554C97.2219 5.43554 99.3561 7.82718 99.3561 11.4328V17.3756C99.3561 18.0098 99.6817 18.2997 100.116 18.2997C100.405 18.2815 100.604 18.2453 100.767 18.1909ZM81.1607 0L74.8483 11.8132H74.6494L68.3189 0H64.3579V21.3254H68.6626V9.29477H68.8615L74.0525 18.6801H75.4271L80.6542 9.29477H80.8532V21.3254H85.1579V0H81.1607Z" fill="#E20074"/>
</g>
<defs>
<clipPath id="clip0_11546_146437">
<rect width="180.87" height="52" fill="white" transform="translate(0.565186)"/>
</clipPath>
</defs>
</svg>

<svg width="182" height="52" fill="none" xmlns="http://www.w3.org/2000/svg"><g clip-path="url(#a)"><path d="M10.857 33.99H.565V23.7h10.292V33.99ZM.565 0v17.502h3.093v-.507c0-8.244 4.63-13.39 13.384-13.39h.507v37.071c0 5.146-2.062 7.211-7.199 7.211H8.795v3.606h26.75v-3.606h-1.537c-5.137 0-7.199-2.065-7.199-7.211V3.606h.507c8.754 0 13.384 5.145 13.384 13.39v.506h3.093V0H.565Zm32.918 33.99h10.292V23.7H33.483V33.99ZM164.361 52c3.545 0 5.769-1.975 5.769-5.037 0-2.392-1.374-3.95-3.979-4.62l-2.08-.544c-.886-.199-1.374-.634-1.374-1.431s.633-1.431 1.664-1.431c1.013 0 1.627.543 1.79 1.666h3.961c-.325-3.062-2.478-4.946-5.733-4.946-3.509 0-5.68 2.138-5.68 4.783 0 2.682 1.411 4.077 3.636 4.693l2.098.544c1.013.29 1.718.706 1.718 1.63 0 .888-.705 1.432-1.79 1.432-1.086 0-1.809-.453-2.044-1.595h-3.835c.254 3.062 2.424 4.856 5.879 4.856Zm-13.077 0c3.545 0 5.77-1.975 5.77-5.037 0-2.392-1.375-3.95-3.98-4.62l-2.08-.544c-.886-.199-1.374-.634-1.374-1.431s.633-1.431 1.664-1.431c1.013 0 1.628.543 1.79 1.666h3.961c-.325-3.062-2.477-4.946-5.733-4.946-3.509 0-5.679 2.138-5.679 4.783 0 2.682 1.41 4.077 3.635 4.693l2.098.544c1.013.29 1.718.706 1.718 1.63 0 .888-.705 1.432-1.79 1.432s-1.809-.453-2.044-1.595h-3.834c.271 3.062 2.441 4.856 5.878 4.856Zm-7.307-8.642c0-4.693-2.623-7.755-6.638-7.755-4.305 0-6.982 3.026-6.982 8.207 0 5.237 2.767 8.208 6.891 8.208 3.383 0 5.969-1.848 6.566-4.874h-4.142c-.38.924-1.212 1.395-2.424 1.395-1.555 0-2.749-.833-2.966-3.732h9.622c.073-.362.073-.906.073-1.45Zm-6.638-4.276c1.374 0 2.46.67 2.749 2.735h-5.679c.379-2.065 1.447-2.736 2.93-2.736Zm-13.439-3.48c-1.845 0-3.31.889-4.106 2.392h-.199V36.11h-3.852v15.383h4.106V42.47c0-1.885 1.049-3.099 2.622-3.099 1.465 0 2.008.96 2.008 2.465v9.675h4.106v-10.2c0-3.77-1.556-5.708-4.685-5.708Zm-10.762-1.757v-3.678h-4.105v3.678h4.105Zm0 17.648V36.11h-4.105v15.383h4.105ZM101.255 52c3.545 0 5.77-1.975 5.77-5.037 0-2.392-1.375-3.95-3.979-4.62l-2.08-.544c-.886-.199-1.375-.634-1.375-1.431s.633-1.431 1.664-1.431c1.013 0 1.628.543 1.791 1.666h3.961c-.326-3.062-2.478-4.946-5.734-4.946-3.508 0-5.679 2.138-5.679 4.783 0 2.682 1.41 4.077 3.636 4.693l2.098.544c1.012.29 1.718.706 1.718 1.63 0 .888-.706 1.432-1.791 1.432s-1.808-.453-2.044-1.595h-3.834c.271 3.062 2.442 4.856 5.878 4.856Zm-15.88 0c1.845 0 3.31-.888 4.106-2.392h.199v1.885h3.852V36.11h-4.106v9.005c0 1.884-1.049 3.134-2.622 3.134-1.465 0-2.008-.96-2.008-2.464V36.11H80.69v10.183C80.672 50.06 82.246 52 85.375 52ZM76.06 40.712c1.628-.96 2.623-2.681 2.623-4.874 0-3.062-1.845-5.653-6.222-5.653h-8.103v21.326h7.94c4.63 0 6.566-2.646 6.566-5.907 0-2.228-1.013-3.931-2.804-4.747v-.145Zm-4.178-6.74c1.41 0 2.333.96 2.333 2.464 0 1.468-.886 2.483-2.333 2.483h-3.22v-4.947h3.22Zm-3.22 13.716v-5.11h3.13c1.682 0 2.622.96 2.622 2.519 0 1.63-.922 2.59-2.622 2.59h-3.13Zm95.464-29.117c1.808 0 2.839-1.503 2.839-3.315v-.743h-.832c-2.514 0-3.834.743-3.834 2.265.018 1.123.85 1.793 1.827 1.793Zm8.265-.38v2.899c-.47.254-1.338.417-1.953.417-1.212 0-2.641-.472-3.057-1.94h-.163c-.922 1.432-2.459 2.066-4.178 2.066-2.93 0-4.648-1.72-4.648-4.53 0-3.641 3.292-5.362 7.741-5.362h.832v-.598c0-1.504-.669-2.392-2.206-2.392-1.176 0-1.809.707-2.008 1.667h-3.925c.326-3.134 2.677-4.982 5.933-4.982 4.087 0 6.221 2.391 6.221 5.997v5.943c0 .634.326.924.76.924.308-.018.488-.055.651-.11Zm-18.358 3.388c1.139 0 2.08-.163 2.93-.544v-3.224a7.752 7.752 0 0 1-1.754.217c-1.176 0-1.845-.598-1.845-1.758V9.44h3.925V5.943h-3.925V.344h-.76l-3.346 3.099v2.482h-2.623V9.44h2.623v7.338c0 3.134 1.935 4.801 4.775 4.801Zm-13.33-16.162c-1.845 0-3.31.888-4.106 2.392h-.199V5.943h-3.852v15.382h4.105v-9.04c0-1.885 1.049-3.099 2.623-3.099 1.465 0 2.008.96 2.008 2.464v9.675h4.105V11.143c0-3.769-1.555-5.726-4.684-5.726Zm-19.498 6.233h5.679c-.289-2.083-1.374-2.736-2.749-2.736-1.501-.018-2.55.653-2.93 2.736Zm9.496 2.972h-9.622c.217 2.899 1.41 3.732 2.966 3.732 1.212 0 2.044-.471 2.423-1.413h4.142c-.596 3.026-3.183 4.874-6.565 4.874-4.106 0-6.891-2.972-6.891-8.208 0-5.164 2.677-8.208 6.981-8.208 4.016 0 6.638 3.062 6.638 7.755 0 .562 0 1.105-.072 1.468Zm-19.335-1.54c0-2.392-.995-3.805-2.966-3.805-1.972 0-2.967 1.413-2.967 3.805 0 2.355.995 3.804 2.967 3.804 1.971 0 2.966-1.45 2.966-3.804Zm4.051-7.14v14.912c0 3.606-2.459 6.124-6.945 6.124-3.925 0-6.312-2.174-6.656-4.602h4.106c.289.797 1.139 1.25 2.55 1.25 1.917 0 2.84-1.05 2.84-2.717V18.97h-.199c-.742 1.05-2.008 1.758-3.799 1.758-3.834 0-6.059-2.972-6.059-7.628 0-4.657 2.225-7.664 6.059-7.664 2.044 0 3.346.924 4.052 2.228h.199V5.943h3.852Zm-22.916 12.63c1.809 0 2.84-1.504 2.84-3.316v-.743h-.832c-2.514 0-3.835.743-3.835 2.265.018 1.123.85 1.793 1.827 1.793Zm8.266-.381v2.899c-.47.254-1.338.417-1.953.417-1.212 0-2.641-.472-3.057-1.94h-.163c-.922 1.432-2.46 2.066-4.178 2.066-2.93 0-4.648-1.72-4.648-4.53 0-3.641 3.291-5.362 7.74-5.362h.833v-.598c0-1.504-.67-2.392-2.207-2.392-1.175 0-1.808.707-2.007 1.667h-3.925c.325-3.134 2.677-4.982 5.932-4.982 4.088 0 6.222 2.391 6.222 5.997v5.943c0 .634.326.924.76.924.289-.018.488-.055.651-.11ZM81.161 0l-6.313 11.813h-.199L68.32 0h-3.961v21.325h4.305V9.295h.199l5.19 9.385h1.375l5.227-9.385h.2v12.03h4.304V0H81.16Z" fill="#E20074"/></g><defs><clipPath id="a"><path fill="#fff" transform="translate(.565)" d="M0 0h180.87v52H0z"/></clipPath></defs></svg>
